symbols/web/format_indent_increase/materialsymbolsoutlined/format_indent_increase_24px.svg

<svg xmlns="http://www.w3.org/2000/svg" height="24" width="24"><path d="M3 21v-2h18v2Zm0-5V8l4 4ZM3 5V3h18v2Zm8 12v-2h10v2Zm0-4v-2h10v2Zm0-4V7h10v2Z"/></svg>

<svg xmlns="http://www.w3.org/2000/svg" height="24" width="24"><path d="M3 21V19H21V21ZM3 16V8L7 12ZM11 17V15H21V17ZM3 5V3H21V5ZM11 9V7H21V9ZM11 13V11H21V13Z"/></svg>
